public/logos/OY.svg

<?xml version="1.0" encoding="UTF-8"?>
<svg xmlns="http://www.w3.org/2000/svg" xmlns:xlink="http://www.w3.org/1999/xlink" width="176pt" height="45.21pt" viewBox="0 0 176 45.21" version="1.1">
<defs>
<clipPath id="clip1">
  <path d="M 75 0 L 110 0 L 110 45.210938 L 75 45.210938 Z M 75 0 "/>
</clipPath>
<clipPath id="clip2">
  <path d="M 0 11 L 34 11 L 34 45.210938 L 0 45.210938 Z M 0 11 "/>
</clipPath>
<clipPath id="clip3">
  <path d="M 115 11 L 150 11 L 150 45.210938 L 115 45.210938 Z M 115 11 "/>
</clipPath>
<clipPath id="clip4">
  <path d="M 153 11 L 176 11 L 176 45.210938 L 153 45.210938 Z M 153 11 "/>
</clipPath>
</defs>
<g id="surface1">
<g clip-path="url(#clip1)" clip-rule="nonzero">
<path style=" stroke:none;fill-rule:nonzero;fill:rgb(60.522461%,10.449219%,12.501526%);fill-opacity:1;" d="M 83.871094 28.296875 C 84.050781 29.355469 84.113281 30.449219 84.429688 31.464844 C 85.417969 34.636719 87.484375 36.832031 90.78125 37.53125 C 94.3125 38.277344 97.34375 37.269531 99.617188 34.371094 C 100.816406 32.84375 101.320312 31.050781 101.460938 29.148438 C 101.640625 26.753906 101.195312 24.519531 99.765625 22.523438 C 97.269531 19.050781 92.777344 18.296875 89.292969 19.683594 C 86.117188 20.945312 83.824219 24.363281 83.871094 28.296875 Z M 109.039062 44.34375 C 106.382812 44.34375 103.792969 44.34375 101.113281 44.34375 C 101.113281 43.304688 101.113281 42.289062 101.113281 41.273438 C 101.0625 41.242188 101.007812 41.210938 100.953125 41.179688 C 100.769531 41.324219 100.578125 41.457031 100.402344 41.609375 C 98.390625 43.367188 96.144531 44.652344 93.453125 45.023438 C 88.972656 45.640625 84.992188 44.539062 81.609375 41.5 C 77.605469 37.90625 75.835938 33.375 75.984375 28.035156 C 76.050781 25.605469 76.425781 23.242188 77.375 20.992188 C 78.699219 17.847656 80.816406 15.382812 83.71875 13.589844 C 86.375 11.949219 89.304688 11.417969 92.351562 11.695312 C 95.453125 11.972656 98.179688 13.222656 100.453125 15.394531 C 100.613281 15.546875 100.792969 15.6875 101.058594 15.804688 C 101.15625 14.054688 101.140625 12.324219 101.144531 10.59375 C 101.144531 8.820312 101.144531 7.046875 101.144531 5.277344 C 101.144531 3.53125 101.144531 1.789062 101.144531 -0.00390625 C 103.808594 -0.00390625 106.390625 -0.00390625 109.039062 -0.00390625 C 109.039062 14.753906 109.039062 29.511719 109.039062 44.34375 "/>
</g>
<g clip-path="url(#clip2)" clip-rule="nonzero">
<path style=" stroke:none;fill-rule:nonzero;fill:rgb(60.522461%,10.449219%,12.501526%);fill-opacity:1;" d="M 16.792969 19.074219 C 12.941406 18.851562 9.746094 21.511719 8.578125 24.722656 C 8.019531 26.261719 7.957031 27.839844 8.078125 29.425781 C 8.261719 31.878906 9.246094 33.972656 11.09375 35.632812 C 12.808594 37.167969 14.824219 37.824219 17.109375 37.730469 C 20.359375 37.59375 22.785156 36.089844 24.351562 33.273438 C 25.460938 31.28125 25.675781 29.105469 25.460938 26.859375 C 25.046875 22.550781 21.355469 18.886719 16.792969 19.074219 Z M 25.152344 15.722656 C 25.152344 14.660156 25.152344 13.59375 25.152344 12.476562 C 27.835938 12.476562 30.445312 12.476562 33.113281 12.476562 C 33.113281 23.0625 33.113281 33.65625 33.113281 44.3125 C 30.503906 44.3125 27.878906 44.3125 25.167969 44.3125 C 25.167969 43.292969 25.167969 42.277344 25.167969 41.050781 C 24.8125 41.328125 24.597656 41.480469 24.398438 41.652344 C 22.367188 43.4375 20.082031 44.691406 17.363281 45.042969 C 13.035156 45.605469 9.167969 44.5625 5.847656 41.671875 C 1.523438 37.914062 -0.234375 33.09375 0.0234375 27.460938 C 0.167969 24.363281 0.878906 21.414062 2.554688 18.773438 C 4.6875 15.410156 7.574219 13.003906 11.539062 12.058594 C 14.820312 11.277344 18 11.550781 21.058594 12.992188 C 22.289062 13.574219 23.390625 14.367188 24.410156 15.273438 C 24.597656 15.441406 24.78125 15.613281 24.96875 15.785156 C 25.027344 15.765625 25.089844 15.746094 25.152344 15.722656 "/>
</g>
<g clip-path="url(#clip3)" clip-rule="nonzero">
<path style=" stroke:none;fill-rule:nonzero;fill:rgb(60.522461%,10.449219%,12.501526%);fill-opacity:1;" d="M 141.175781 24.476562 C 140.476562 21.402344 137.15625 18.664062 133.460938 18.457031 C 128.304688 18.164062 125.1875 20.902344 123.949219 24.476562 C 129.679688 24.476562 135.390625 24.476562 141.175781 24.476562 Z M 123.550781 30.707031 C 123.667969 31.96875 124.039062 32.972656 124.566406 33.914062 C 126.203125 36.8125 128.777344 38.160156 132.027344 38.335938 C 135.136719 38.503906 137.839844 37.527344 140.121094 35.40625 C 140.214844 35.320312 140.3125 35.246094 140.453125 35.128906 C 142.679688 36.164062 144.902344 37.195312 147.195312 38.261719 C 146.324219 39.515625 145.347656 40.558594 144.246094 41.488281 C 141.839844 43.527344 139.023438 44.597656 135.925781 44.992188 C 133.878906 45.25 131.828125 45.234375 129.777344 45.003906 C 123.53125 44.289062 118.164062 39.753906 116.398438 33.675781 C 115.65625 31.117188 115.621094 28.527344 115.933594 25.898438 C 116.238281 23.273438 117.09375 20.851562 118.605469 18.703125 C 121.042969 15.246094 124.257812 12.890625 128.476562 12.039062 C 132.460938 11.234375 136.347656 11.550781 140.050781 13.230469 C 143.097656 14.609375 145.414062 16.847656 147.078125 19.753906 C 148.359375 22 148.976562 24.445312 149.207031 26.992188 C 149.3125 28.1875 149.320312 29.394531 149.375 30.707031 C 140.742188 30.707031 132.207031 30.707031 123.550781 30.707031 "/>
</g>
<path style=" stroke:none;fill-rule:nonzero;fill:rgb(60.522461%,10.449219%,12.501526%);fill-opacity:1;" d="M 49.214844 44.328125 C 46.5625 44.328125 43.953125 44.328125 41.285156 44.328125 C 41.285156 33.714844 41.285156 23.117188 41.285156 12.472656 C 43.902344 12.472656 46.511719 12.472656 49.226562 12.472656 C 49.226562 13.503906 49.226562 14.535156 49.226562 15.742188 C 50.046875 15.136719 50.714844 14.640625 51.386719 14.148438 C 53.90625 12.3125 56.714844 11.402344 59.832031 11.675781 C 63.109375 11.960938 65.824219 13.375 67.78125 16.070312 C 68.800781 17.472656 69.277344 19.097656 69.472656 20.792969 C 69.59375 21.863281 69.632812 22.945312 69.636719 24.019531 C 69.667969 30.46875 69.679688 36.917969 69.699219 43.367188 C 69.699219 43.667969 69.699219 43.972656 69.699219 44.320312 C 67.015625 44.320312 64.40625 44.320312 61.738281 44.320312 C 61.726562 44.023438 61.703125 43.75 61.703125 43.476562 C 61.703125 38.285156 61.730469 33.097656 61.691406 27.90625 C 61.679688 26.425781 61.601562 24.921875 61.34375 23.46875 C 60.59375 19.316406 57.058594 18.269531 53.824219 19.535156 C 51.886719 20.292969 50.78125 21.886719 50.027344 23.753906 C 49.457031 25.164062 49.335938 26.640625 49.328125 28.128906 C 49.292969 33.316406 49.285156 38.507812 49.265625 43.695312 C 49.265625 43.894531 49.234375 44.09375 49.214844 44.328125 "/>
<g clip-path="url(#clip4)" clip-rule="nonzero">
<path style=" stroke:none;fill-rule:nonzero;fill:rgb(60.522461%,10.449219%,12.501526%);fill-opacity:1;" d="M 158.109375 34.226562 C 159.144531 35.019531 160.054688 35.816406 161.0625 36.460938 C 162.328125 37.269531 163.714844 37.816406 165.269531 37.726562 C 166.199219 37.675781 167.035156 37.410156 167.714844 36.753906 C 168.582031 35.914062 168.667969 34.960938 167.96875 33.984375 C 167.292969 33.039062 166.335938 32.4375 165.328125 31.914062 C 164.234375 31.347656 163.121094 30.816406 162.019531 30.261719 C 160.265625 29.382812 158.617188 28.347656 157.242188 26.933594 C 156.160156 25.820312 155.257812 24.578125 154.832031 23.054688 C 154.027344 20.195312 154.519531 17.574219 156.425781 15.28125 C 158.085938 13.285156 160.242188 12.15625 162.8125 11.792969 C 166.585938 11.253906 169.996094 12.121094 172.988281 14.476562 C 173.863281 15.164062 174.585938 16.050781 175.457031 16.925781 C 173.734375 18.675781 172.109375 20.332031 170.46875 22 C 169.75 21.425781 169.050781 20.832031 168.316406 20.289062 C 167.148438 19.421875 165.851562 18.949219 164.367188 19.074219 C 163.683594 19.132812 163.066406 19.320312 162.570312 19.832031 C 161.835938 20.582031 161.8125 21.5625 162.609375 22.261719 C 163.046875 22.644531 163.554688 22.96875 164.070312 23.238281 C 165.976562 24.238281 167.921875 25.164062 169.804688 26.203125 C 170.828125 26.769531 171.816406 27.441406 172.726562 28.183594 C 175.300781 30.289062 176.234375 33.085938 175.949219 36.34375 C 175.558594 40.863281 171.933594 44.234375 167.304688 44.96875 C 164.632812 45.390625 161.980469 45.300781 159.40625 44.355469 C 156.898438 43.433594 154.910156 41.828125 153.257812 39.625 C 154.890625 37.808594 156.511719 36.003906 158.109375 34.226562 "/>
</g>
</g>
</svg>

<svg xmlns="http://www.w3.org/2000/svg" width="176pt" height="60.28" viewBox="0 0 176 45.21"><defs><clipPath id="a"><path d="M75 0h35v45.21H75Zm0 0"/></clipPath><clipPath id="b"><path d="M0 11h34v34.21H0Zm0 0"/></clipPath><clipPath id="c"><path d="M115 11h35v34.21h-35Zm0 0"/></clipPath><clipPath id="d"><path d="M153 11h23v34.21h-23Zm0 0"/></clipPath></defs><g clip-path="url(#a)"><path d="M83.871 28.297c.18 1.058.242 2.152.559 3.168.988 3.172 3.054 5.367 6.351 6.066 3.531.746 6.563-.261 8.836-3.16 1.2-1.527 1.703-3.32 1.844-5.223.18-2.394-.266-4.628-1.695-6.625-2.496-3.472-6.989-4.226-10.473-2.84-3.176 1.262-5.469 4.68-5.422 8.614m25.168 16.047h-7.926v-3.07q-.076-.048-.16-.094c-.183.144-.375.277-.55.43-2.012 1.757-4.258 3.042-6.95 3.413-4.48.618-8.46-.484-11.844-3.523-4.004-3.594-5.773-8.125-5.625-13.465.067-2.43.442-4.793 1.391-7.043q1.988-4.715 6.344-7.402c2.656-1.64 5.586-2.172 8.633-1.895 3.101.278 5.828 1.528 8.101 3.7.16.152.34.293.606.41.097-1.75.082-3.48.086-5.211V-.003h7.894z" style="stroke:none;fill-rule:nonzero;fill:#9a1b20;fill-opacity:1"/></g><g clip-path="url(#b)"><path d="M16.793 19.074c-3.852-.222-7.047 2.438-8.215 5.649-.558 1.539-.621 3.117-.5 4.703.184 2.453 1.168 4.547 3.016 6.207 1.715 1.535 3.73 2.191 6.015 2.097 3.25-.136 5.676-1.64 7.243-4.457 1.109-1.992 1.324-4.168 1.109-6.414-.414-4.308-4.106-7.972-8.668-7.785m8.36-3.351v-3.246h7.96v31.835h-7.945v-3.261c-.355.277-.57.43-.77.601-2.03 1.785-4.316 3.04-7.035 3.391-4.328.562-8.195-.48-11.515-3.371C1.523 37.914-.234 33.094.023 27.46c.145-3.098.856-6.047 2.532-8.688 2.133-3.363 5.02-5.77 8.984-6.714 3.281-.782 6.461-.508 9.52.933 1.23.582 2.332 1.375 3.351 2.281.188.168.371.34.559.512q.088-.029.183-.062" style="stroke:none;fill-rule:nonzero;fill:#9a1b20;fill-opacity:1"/></g><g clip-path="url(#c)"><path d="M141.176 24.477c-.7-3.075-4.02-5.813-7.715-6.02-5.156-.293-8.274 2.445-9.512 6.02zm-17.625 6.23c.117 1.262.488 2.266 1.015 3.207 1.637 2.898 4.211 4.246 7.461 4.422 3.11.168 5.813-.809 8.094-2.93.094-.086.191-.16.332-.277 2.227 1.035 4.45 2.066 6.742 3.133a16.5 16.5 0 0 1-2.949 3.226c-2.406 2.04-5.223 3.11-8.32 3.504-2.047.258-4.098.242-6.149.012-6.246-.715-11.613-5.25-13.379-11.328-.742-2.559-.777-5.149-.464-7.778.304-2.625 1.16-5.046 2.671-7.195 2.438-3.457 5.653-5.812 9.872-6.664 3.984-.805 7.87-.488 11.574 1.191 3.047 1.38 5.363 3.618 7.027 6.524 1.281 2.246 1.899 4.691 2.129 7.238.106 1.195.113 2.403.168 3.715z" style="stroke:none;fill-rule:nonzero;fill:#9a1b20;fill-opacity:1"/></g><path d="M49.215 44.328h-7.93V12.473h7.942v3.27c.82-.606 1.488-1.102 2.16-1.595 2.52-1.835 5.328-2.746 8.445-2.472 3.277.285 5.992 1.699 7.95 4.394 1.019 1.403 1.495 3.028 1.69 4.723a30 30 0 0 1 .165 3.227c.031 6.449.043 12.898.062 19.347v.953h-7.96c-.012-.297-.036-.57-.036-.843 0-5.192.027-10.38-.012-15.57-.011-1.481-.09-2.985-.347-4.438-.75-4.153-4.285-5.2-7.52-3.934-1.937.758-3.043 2.352-3.797 4.219-.57 1.41-.691 2.887-.699 4.375-.035 5.187-.043 10.379-.062 15.566 0 .2-.032.399-.051.633" style="stroke:none;fill-rule:nonzero;fill:#9a1b20;fill-opacity:1"/><g clip-path="url(#d)"><path d="M158.11 34.227c1.035.793 1.945 1.59 2.952 2.234 1.266.809 2.653 1.355 4.208 1.266.93-.051 1.765-.317 2.445-.973.867-.84.953-1.793.254-2.77-.676-.945-1.633-1.547-2.64-2.07-1.095-.566-2.208-1.098-3.31-1.652-1.753-.88-3.402-1.914-4.777-3.328-1.082-1.114-1.984-2.356-2.41-3.88-.805-2.859-.312-5.48 1.594-7.773 1.66-1.996 3.816-3.125 6.387-3.488 3.773-.54 7.183.328 10.175 2.684.875.687 1.598 1.574 2.469 2.449-1.723 1.75-3.348 3.406-4.988 5.074-.719-.574-1.418-1.168-2.153-1.71-1.168-.868-2.464-1.34-3.949-1.216-.683.059-1.3.246-1.797.758-.734.75-.757 1.73.04 2.43.437.383.945.707 1.46.976 1.907 1 3.852 1.926 5.735 2.965a20 20 0 0 1 2.922 1.98c2.574 2.106 3.507 4.903 3.222 8.16-.39 4.52-4.015 7.891-8.644 8.626-2.672.422-5.325.332-7.899-.614-2.508-.921-4.496-2.527-6.148-4.73z" style="stroke:none;fill-rule:nonzero;fill:#9a1b20;fill-opacity:1"/></g></svg>
